X: 21114
T: Kanturk, The
R: polka
M: 2/4
K: Dmajor
|:d>e fe|dc BA|B/c/d/B/ AF|E2 EA|
d>e fe|dc BA|B/c/d/B/ AF|1 D2 DA:|2 D2 D2||
|:A/B/c/d/ ef|gb ag|fd/f/ af|e2 ea|
A/B/c/d/ ef|gb ag|fd/f/ ec|1 d2 da:|2 d2 dA||

